X:23
T:Polska efter Omas Per Nilsson
R:polska K1
A:Transtrand, Dalarna
Z:id:hn-k1-23
M:3/4
L:1/8
K:Ddor
|:e|g>e fd e>d|^cB AG F>G|A2 fe/d/ e>A|^c<e d2 A>e|
g>e fd e>d|^cB AG F>G|A2 fe/d/ e>A|^c<e d3:|
|:E|F2 EF D>E|EF ED/E/ F>G|(3AB^c d2 D>E|
F2 EF D>E|EF ED/E/ F>G|(3AB^c d>e f>e|1 ^c<e d3E:|2 ^c<e d3||

